icons/CurrencyYen.svg

<svg width="24" height="24" viewBox="0 0 24 24" fill="none" xmlns="http://www.w3.org/2000/svg">
<path fill-rule="evenodd" clip-rule="evenodd" d="M5.54998,3.39994c0.33137,-0.24853 0.80147,-0.18137 1.05,0.15l5.40002,7.19996l5.4,-7.19996c0.2485,-0.33137 0.7186,-0.39853 1.05,-0.15c0.3314,0.24853 0.3985,0.71863 0.15,1.05l-5.1,6.79996h3.4999c0.4143,0 0.75,0.3358 0.75,0.75c0,0.4142 -0.3357,0.75 -0.75,0.75h-4.2499v1.5h4.2499c0.4143,0 0.75,0.3358 0.75,0.75c0,0.4142 -0.3357,0.75 -0.75,0.75h-4.2499v4.25c0,0.4143 -0.3358,0.75 -0.75,0.75c-0.4142,0 -0.75,-0.3357 -0.75,-0.75v-4.25h-4.25006c-0.41421,0 -0.75,-0.3358 -0.75,-0.75c0,-0.4142 0.33579,-0.75 0.75,-0.75h4.25006v-1.5h-4.25006c-0.41421,0 -0.75,-0.3358 -0.75,-0.75c0,-0.4142 0.33579,-0.75 0.75,-0.75h3.50006l-5.10002,-6.79996c-0.24853,-0.33137 -0.18137,-0.80147 0.15,-1.05z" fill="#002B51"/>
</svg>

<svg width="24" height="24" viewBox="0 0 24 24" fill="none" xmlns="http://www.w3.org/2000/svg">
<path fill-rule="evenodd" clip-rule="evenodd" d="M5.54998 3.39994C5.88135 3.15141 6.35145 3.21857 6.59998 3.54994L12 10.7499L17.4 3.54994C17.6485 3.21857 18.1186 3.15141 18.45 3.39994C18.7814 3.64847 18.8485 4.11857 18.6 4.44994L13.5 11.2499H16.9999C17.4142 11.2499 17.7499 11.5857 17.7499 11.9999C17.7499 12.4141 17.4142 12.7499 16.9999 12.7499H12.75V14.2499H16.9999C17.4142 14.2499 17.7499 14.5857 17.7499 14.9999C17.7499 15.4141 17.4142 15.7499 16.9999 15.7499H12.75V19.9999C12.75 20.4142 12.4142 20.7499 12 20.7499C11.5858 20.7499 11.25 20.4142 11.25 19.9999V15.7499H6.99994C6.58573 15.7499 6.24994 15.4141 6.24994 14.9999C6.24994 14.5857 6.58573 14.2499 6.99994 14.2499H11.25V12.7499H6.99994C6.58573 12.7499 6.24994 12.4141 6.24994 11.9999C6.24994 11.5857 6.58573 11.2499 6.99994 11.2499H10.5L5.39998 4.44994C5.15145 4.11857 5.21861 3.64847 5.54998 3.39994Z" fill="#002B51"/>
</svg>
